X: 4043
T: Sir Charles Douglass's    Strathspey
C: By Nath.Gow
%R: strathspey
B: Niel Gow & Sons "A Fourth Collection of Strathspey Reels, etc." v.4 p.4 #3
Z: 2022 John Chambers <jc:trillian.mit.edu>
N: Bar 5 ends with 2 8th notes, but the 1st is dotted; fixed in one of the two possible ways (to match bar 9).
M: C
L: 1/8
K: D
% - - - - - - - - - -
V: 1 staves=2
B !segno!|:\
A<DF>D ADDB | ADFD F/G/A Td2 | A<DTF>D A<DA>F | G<BF<d E/E/E TB2 :| Ad-d>f {f}e>d{d}c>B | A<d-d>f e>f {ef}ge |
A<dd>f ecdA | B<dFd E/E/E TB2 || A<dd>f {f}e>d{d}c>B | A<d-d>f e>f {a}gf/e/ | f<ae<f d<fB<d | A<dF<d E/E/E TB2 !segno!|]
% - - - - - - - - - -
% Voice 2 preserves the staff layout in the book.
V: 2 clef=bass middle=d
z !segno!|:\
d2d2 d2d2 | d2d2 d2d2 | d2d2 d2d2 | g2f2 e2e2 :| d2d2 a2g2 | f2d2 c2A2 |
d2c'2 a2f2 | g2f2 e2e2 || d2d2 a2g2 | f2d2 a2A2 | d'2c'2 b2g2 | d2d2 e2e2 !segno!|]


